app/dist/common/images/hilton-food-plc.svg

<svg height="18" viewBox="0 0 18 18" width="18" xmlns="http://www.w3.org/2000/svg"><path d="m0 0h18v18h-18z" fill="#f0f3fa"/><path d="m5 4v10l8-3.26v-6.74z" fill="#002072"/><path d="m9 12.37 4 1.63v-3.26z" fill="#418fde"/><path d="m9 6v3h-.67v-1.82l-.57.59h-.76v1.23h-.66v-3h.66v1.18h1.33v-1.18zm1 .56v.79h1.14l-.5.56h-.64v1.09h-.66v-3h2v.56z" fill="#f0f3fa"/></svg>

<!-- by TradingView --><svg width="18" height="18" viewBox="0 0 18 18" xmlns="http://www.w3.org/2000/svg"><path fill="#F0F3FA" d="M0 0h18v18H0z"/><path d="M5 4v10l8-3.26V4H5Z" fill="#002072"/><path d="M9 12.37 13 14v-3.26l-4 1.63Z" fill="#418FDE"/><path d="M9 6v3h-.67V7.18l-.57.59H7V9h-.66V6H7v1.18h1.33V6H9ZM10 6.56v.79h1.14l-.5.56H10V9h-.66V6h2v.56H10Z" fill="#F0F3FA"/></svg>
